public/illustrations/_oil.svg

<svg width="229" height="216" viewBox="0 0 229 216" fill="none" xmlns="http://www.w3.org/2000/svg">
<path d="M105.388 35.5471C105.671 35.5613 105.968 35.3064 106.265 35.0374C109.437 31.8234 112.863 31.6111 116.842 35.972C118.711 37.9258 120.424 39.8797 122.562 42.1451C123.907 41.0973 125.111 40.0355 126.314 38.832C129.825 34.7968 131.128 34.4427 136.452 35.4904C137.499 34.556 137.018 33.1119 137.245 31.8518C137.924 25.3671 139.184 18.9249 142.667 13.1765C147.722 4.97867 155.198 0.901091 164.599 0.348906C170.149 -0.0192172 175.827 -0.0900724 181.349 0.108148C186.602 0.00903771 191.798 0.90107 196.796 2.62842C199.84 3.81774 202.558 5.68665 204.824 8.09361C207.089 10.5006 208.76 13.304 209.836 16.4897C211.889 22.1532 212.937 28.1705 212.71 34.2586C212.498 37.6567 212.852 41.2248 212.923 44.6228C212.852 45.7555 212.781 46.8882 212.838 48.1625C213.659 48.6439 214.466 49.2526 215.287 49.8756C223.641 54.7886 227.718 62.137 227.973 71.6657C228.228 76.6495 228.072 81.605 227.336 86.518C226.444 91.8558 226.94 97.4201 226.742 102.942C226.416 112.853 226.09 122.622 225.75 132.533C225.58 139.896 225.269 147.117 225.099 154.479C224.958 161.417 224.816 168.227 224.519 175.151C224.264 183.929 223.981 192.849 223.726 201.627C223.91 203.341 223.782 205.181 223.386 206.993C223.173 208.112 222.551 208.933 221.659 209.726C220.767 210.519 219.747 210.887 218.742 210.958C217.17 211.142 215.74 211.34 214.183 211.383C209.921 211.397 205.673 211.425 201.553 211.453C194.177 211.567 186.644 211.666 179.267 211.623C170.617 211.652 161.81 211.68 153.159 211.708C144.65 211.751 136.282 211.652 127.758 211.836C119.249 211.878 111.136 212.218 102.768 212.275C98.7896 212.317 94.8393 212.062 90.8749 211.822C87.9016 211.637 86.5706 210.278 86.0468 207.262C85.9335 206.682 85.8485 205.974 85.8769 205.408C85.9335 200.013 85.976 194.633 86.0326 189.239C86.1034 183.575 85.8769 178.025 85.9477 172.347C86.0468 170.648 86.0326 168.808 86.0043 166.953C86.1459 160.015 86.3016 153.063 86.4432 146.126C86.4999 140.604 86.4149 135.054 86.4857 129.532C86.6131 127.55 86.4432 125.553 86.4432 123.43C86.599 116.35 86.7547 109.257 86.8963 102.319C86.8963 95.3672 86.9388 87.9906 86.9529 80.8971C87.0662 79.0565 86.9105 77.0602 88.6945 75.616C89.459 74.8089 90.082 73.8603 90.705 72.8975L86.245 67.0925C85.7211 66.4978 85.1831 65.889 84.8008 65.2943C82.8611 62.3352 81.431 60.268 85.3671 56.1054C85.6786 55.6948 85.9901 55.2984 86.4432 54.7604L71.8456 40.9416C70.9819 41.1682 70.2599 41.4088 69.6652 41.8053L55.0393 48.8421C54.303 49.2243 53.4252 49.5924 52.5615 49.8189C50.2678 50.2437 48.144 50.1164 46.5724 48.0351C43.6699 44.453 40.7815 40.8708 38.1763 37.0197C37.6666 36.1418 37.2985 35.1224 37.0861 34.1171C36.8737 33.1118 36.9303 32.1208 37.2843 31.0023C37.4825 30.0253 37.9781 29.0624 38.5869 28.2412C39.2099 27.4342 39.9603 26.7689 40.8381 26.2592C44.9725 23.6823 49.2342 21.247 53.3544 18.8118C58.6639 15.5978 63.8318 12.3695 69.1272 9.29706C71.3359 8.00862 73.6862 6.74866 76.2914 8.03709C77.41 8.39106 78.3586 9.01401 79.1656 9.77857C82.6487 13.12 86.1176 16.5889 89.5864 20.0719L104 34.5844C104.411 34.8959 104.807 35.2073 105.232 35.3631L105.359 35.5188L105.388 35.5471ZM214.126 201.188L214.353 197.521C214.48 193.132 214.48 188.729 214.593 184.481C214.834 175.986 215.089 167.349 215.33 158.854C215.528 151.209 215.726 143.421 216.052 135.776C216.363 128.413 216.675 121.207 216.986 113.844C217.227 105.491 217.17 97.2645 217.397 88.8967C217.567 86.065 217.751 83.2475 218.345 80.5857C218.968 77.3575 218.345 73.9169 218.119 70.6463C217.977 68.3668 217.269 66.059 216.108 64.1334C214.947 62.222 213.362 60.4097 211.309 59.1495C207.627 56.6576 203.776 54.8452 199.444 53.7267C192.902 51.7587 186.163 50.4844 179.381 50.0738C171.622 49.4509 163.863 48.6863 156.104 47.9217C149.336 47.2138 142.568 46.52 135.8 45.8121C135.092 45.7696 134.243 45.7129 133.648 46.1094C132.926 46.3501 132.317 46.874 131.864 47.412C129.117 50.4986 126.102 53.302 123.227 56.2328C115.369 63.9775 107.511 71.7082 99.5258 79.2972C98.9312 79.821 98.3082 80.6423 97.9684 81.4635C97.6286 82.2847 97.4445 83.1341 97.5294 83.9836C97.5436 92.7761 97.4445 101.427 97.4728 110.078C97.4162 120.145 97.3454 130.353 97.1472 140.42C97.1047 150.345 97.0339 160.412 96.8498 170.337C96.7507 178.846 96.51 187.341 96.2693 195.695C96.1419 197.677 96.4392 199.815 97.0339 201.698L112.637 201.67L137.188 201.5C144.423 201.528 151.8 201.415 159.035 201.443C165.562 201.429 172.103 201.259 178.63 201.245L180.613 201.372C186.573 201.316 192.407 201.118 198.226 201.047C203.196 201.075 208.449 200.976 214.112 201.047V201.188H214.126ZM151.686 37.0055C152.054 35.7454 152.253 34.7684 152.593 33.8056C153.159 31.5686 153.867 29.3457 154.702 27.2644C155.877 24.3619 157.732 21.785 160.267 19.8028C162.659 17.8206 165.718 16.4472 168.733 15.9375C173.038 15.0738 177.441 15.0597 181.802 15.7535C189.943 17.1127 193.525 21.162 195.338 28.5104C195.649 30.3793 195.946 32.3757 196.116 34.2305C196.371 36.9348 196.626 39.7948 197.022 42.5132L202.898 43.8724C203.068 43.4618 203.238 43.037 203.266 42.6122C203.181 39.3416 203.394 35.9577 203.04 32.6729C202.7 28.9633 202.077 25.3813 201.157 21.7709C199.571 15.2862 194.969 11.7466 188.187 11.3218C180.712 10.713 173.349 10.4015 165.944 10.9395C163.381 11.0669 160.79 11.6192 158.596 12.7518C156.26 13.8845 154.306 15.6118 152.762 17.6365C148.571 23.3282 148.444 29.9969 147.467 36.7364L151.97 37.3028L151.701 37.0055H151.686ZM98.3931 43.1928L74.0969 18.6984C65.545 23.8379 57.0215 28.567 48.8944 33.8765C49.5457 34.7685 49.928 35.5047 50.3244 35.9578C51.1173 36.8639 51.7828 37.6142 52.7031 38.6619L56.4976 36.9063C60.7311 34.8958 64.9787 32.7578 69.3537 30.8889C70.6846 30.1243 72.1146 29.9261 73.6579 30.1668C75.0738 30.2517 76.4472 31.0448 77.4949 32.2482C80.0293 34.8109 82.7195 37.1188 85.2681 39.6815L93.8482 47.7376L98.379 43.3343V43.1928H98.3931ZM186.375 40.4318C185.908 36.4249 185.696 33.1543 185.044 29.9969C184.832 28.8501 184.322 27.9723 183.515 27.2077C182.708 26.4431 181.745 25.9618 180.613 25.891C177.668 25.4238 174.822 25.537 171.82 25.7777C170.687 25.7069 169.54 25.9194 168.521 26.4291C167.502 26.9388 166.468 27.5759 165.703 28.383C163.537 31.2288 162.348 34.5561 162.263 38.0957C170.263 39.5824 177.908 39.6389 186.375 40.4459V40.4318ZM110.924 44.8211L94.8676 61.2733L98.3931 66.1721L115.454 49.4933L110.924 44.8211Z" fill="#102185"/>
<path d="M55.6484 215.178C52.7175 214.427 49.6309 213.946 46.7142 212.926C39.0686 210.321 30.8848 209.67 22.871 210.732C19.5862 211.1 16.1882 210.887 12.9883 209.981C9.78843 209.075 6.75848 207.461 4.19576 205.323C2.97812 204.403 1.93037 203.058 1.29323 201.741C0.52866 200.41 0.203006 198.839 0.00478454 197.267C-0.0376915 195.709 0.203006 194.152 0.712718 192.623C1.23659 191.094 2.15691 189.876 3.23297 188.659C7.74959 184.397 13.4555 181.777 19.6004 181.027C29.1858 179.781 38.9836 179.54 48.7248 180.418C54.3741 180.772 60.0517 180.701 65.5594 181.183C67.5416 181.31 69.623 182.004 71.407 182.967C73.8706 184.397 76.0085 186.521 77.566 188.885C79.1093 191.391 79.9305 194.138 80.1712 197.14C80.78 203.412 77.0988 207.73 72.0724 211.1C67.0603 214.186 61.2977 215.531 55.4926 215.319L55.6484 215.192V215.178ZM10.4397 196.191C10.822 196.927 11.3459 197.663 11.8839 198.131C12.5635 198.598 13.2431 199.065 14.0785 199.263C18.0996 200.651 22.333 201.047 26.6373 200.325C32.06 199.815 37.4262 200.141 42.7498 201.33C46.6576 202.279 50.6928 203.667 54.6148 204.332C59.5278 205.21 64.3843 204.658 68.2921 201.061C69.0425 200.396 69.6654 199.447 69.8778 198.471C70.076 197.494 70.0053 196.347 69.4956 195.469C69.1557 194.166 68.3629 193.133 67.2726 192.354C66.1824 191.575 64.9365 191.221 63.6622 191.136C53.0432 190.754 42.495 189.395 31.6777 189.862C26.8496 189.989 21.979 190.683 17.2359 191.802C14.5033 192.481 12.1388 193.897 10.2981 196.049L10.4256 196.205L10.4397 196.191Z" fill="#102185"/>
<path d="M146.618 102.801C147.595 100.733 148.104 99.4875 148.6 98.2415C151.658 90.1994 154.561 82.1573 157.761 74.1294C158.27 72.7419 159.063 71.3684 160.139 70.1649C160.607 69.4853 161.343 68.9615 162.221 68.5934C162.957 68.2111 163.806 68.1262 164.798 68.1829C165.789 68.2395 166.482 68.5652 167.304 68.905C167.983 69.3722 168.649 69.9809 169.173 70.7171C169.951 71.9065 170.588 73.0817 171.07 74.5259C172.146 77.7116 172.939 80.8831 173.887 84.0688C174.27 84.805 174.496 85.6687 175.02 86.405C175.898 85.8952 176.634 85.6545 177.37 85.1307C179.14 84.1112 180.783 82.7945 182.68 81.9166C183.558 81.4069 184.705 81.1946 185.71 81.1097C186.701 81.1663 187.834 81.237 188.797 81.7326C189.759 82.2281 190.566 82.837 191.232 83.729C191.897 84.4794 192.393 85.4987 192.619 86.504C192.959 87.9482 193.143 89.5198 193.186 91.0772C193.186 95.4805 193.072 99.7282 193.087 104.117C193.2 109.229 193.582 114.368 193.695 119.479C193.738 125.582 193.639 131.812 193.54 137.914C193.681 144.738 192.69 151.478 190.595 157.877C187.607 167.194 182.595 174.825 173.137 178.634C170.659 179.611 168.068 180.305 165.35 180.56C161.484 181.027 157.647 181.211 153.81 181.267C152.536 181.183 151.262 181.112 150.172 180.475C147.835 179.342 145.782 178.068 143.446 176.793C139.071 174.245 136.041 170.379 133.167 166.514C127.39 158.925 125.111 150.118 124.983 140.618C124.941 132.25 125.309 124.038 126.243 115.727C126.838 108.535 127.419 101.47 128.141 94.277C128.226 93.0028 128.438 91.7428 128.948 90.4968C130.477 86.3342 135.093 85.2015 138.151 88.5146C139.992 90.7516 141.691 93.2719 143.092 95.7779C144.381 97.8451 145.244 99.8839 146.774 102.815H146.632L146.618 102.801ZM137.641 107.912L137.061 108.153C136.268 116.336 135.489 124.364 134.838 132.562C134.583 136.654 134.611 140.774 135.064 144.922C135.815 153.333 139.921 160.256 145.513 166.288C146.844 167.788 148.331 168.879 150.129 169.7C151.927 170.521 153.74 170.917 155.736 170.903C159.007 170.818 162.136 170.733 165.279 170.224C167.573 169.941 169.753 169.077 171.679 167.788C173.604 166.5 175.261 164.886 176.521 162.989C179.494 158.486 181.519 153.375 182.128 148.023C183.416 138.594 183.728 129.107 183.048 119.564C182.666 112.018 182 104.457 182.326 96.9672C182.383 96.1177 182.284 95.2682 182.213 94.1213C180.301 95.2823 178.956 96.33 177.342 97.0804C173.817 99.1334 169.583 98.5813 167.629 95.7638C166.582 94.2771 165.831 92.6771 165.081 91.063C164.444 89.8879 163.962 88.5854 163.339 87.1271C162.461 89.7747 161.753 91.9975 160.918 94.0646C158.723 99.6006 156.685 105.009 154.363 110.545C153.513 112.768 152.126 114.665 150.327 116.11C149.138 117.03 147.694 117.511 146.136 117.412C144.579 117.313 143.22 116.52 142.285 115.472C141.62 114.722 140.969 113.83 140.459 112.952C139.411 111.466 138.519 109.851 137.485 108.223L137.641 107.954V107.912Z" fill="#102185"/>
<path d="M175.133 139.188C174.623 142.841 174.425 145.956 173.958 148.901C173.293 152.838 171.225 156.391 168.224 159.039C166.284 160.625 163.806 161.602 161.243 161.729C158.681 161.856 156.161 161.276 153.98 159.86C150.978 157.977 148.458 155.117 147.099 151.775C145.244 147.4 143.97 142.785 143.687 138.084C143.602 137.221 143.786 136.385 143.842 135.677C144.182 134.842 144.65 134.162 145.244 133.638C146.306 132.562 147.495 131.656 148.826 130.736C153.414 127.763 156.784 123.572 160.309 119.537C161.074 118.588 161.98 117.653 162.9 116.719C166.794 113.42 172.372 114.893 173.335 120.06C174.057 124.365 174.652 128.655 175.091 132.931C175.232 135.21 175.232 137.475 175.275 139.188H175.133ZM160.182 151.591C163.353 150.799 163.636 148.406 164.061 146.155C164.67 143.21 164.981 140.392 165.024 137.419C165.01 135.436 165.576 133.058 164.656 132.01L153.626 140.548C155.665 144.215 155.198 149.439 160.309 151.606H160.167L160.182 151.591Z" fill="#102185"/>
</svg>

<svg xmlns="http://www.w3.org/2000/svg" width="229" height="216" fill="none" viewBox="0 0 229 216"><path fill="#102185" d="M105.388 35.547c.283.014.58-.24.877-.51 3.172-3.214 6.598-3.426 10.577.935 1.869 1.954 3.582 3.908 5.72 6.173a40 40 0 0 0 3.752-3.313c3.511-4.035 4.814-4.39 10.138-3.342 1.047-.934.566-2.378.793-3.638.679-6.485 1.939-12.927 5.422-18.675C147.722 4.979 155.198.9 164.599.349c5.55-.368 11.228-.44 16.75-.24 5.253-.1 10.449.792 15.447 2.52 3.044 1.189 5.762 3.058 8.028 5.465 2.265 2.407 3.936 5.21 5.012 8.396 2.053 5.663 3.101 11.68 2.874 17.769-.212 3.398.142 6.966.213 10.364-.071 1.133-.142 2.265-.085 3.54.821.48 1.628 1.09 2.449 1.713 8.354 4.913 12.431 12.261 12.686 21.79.255 4.984.099 9.939-.637 14.852-.892 5.338-.396 10.902-.594 16.424-.326 9.911-.652 19.68-.992 29.591-.17 7.363-.481 14.584-.651 21.946-.141 6.938-.283 13.748-.58 20.672-.255 8.778-.538 17.698-.793 26.476.184 1.714.056 3.554-.34 5.366-.213 1.119-.835 1.94-1.727 2.733a4.84 4.84 0 0 1-2.917 1.232c-1.572.184-3.002.382-4.559.425-4.262.014-8.51.042-12.63.07-7.376.114-14.909.213-22.286.17l-26.108.085c-8.509.043-16.877-.056-25.401.128-8.509.042-16.622.382-24.99.439-3.978.042-7.929-.213-11.893-.453-2.973-.185-4.304-1.544-4.828-4.56-.114-.58-.198-1.288-.17-1.854.056-5.395.099-10.775.156-16.169.07-5.664-.156-11.214-.085-16.892.099-1.699.085-3.539.056-5.394.142-6.938.298-13.89.44-20.827.056-5.522-.03-11.072.042-16.594.127-1.982-.043-3.979-.043-6.102.156-7.08.312-14.173.453-21.111 0-6.952.043-14.328.057-21.422.113-1.84-.043-3.837 1.742-5.281.764-.807 1.387-1.756 2.01-2.719l-4.46-5.805c-.524-.594-1.062-1.203-1.444-1.798-1.94-2.959-3.37-5.026.566-9.189.312-.41.623-.807 1.076-1.345L71.846 40.942c-.864.226-1.586.467-2.18.863l-14.627 7.037c-.736.382-1.614.75-2.477.977-2.294.425-4.418.297-5.99-1.784-2.902-3.582-5.79-7.164-8.396-11.015-.51-.878-.878-1.898-1.09-2.903s-.156-1.996.198-3.115c.199-.977.694-1.94 1.303-2.76a7.7 7.7 0 0 1 2.251-1.983c4.134-2.577 8.396-5.012 12.516-7.447 5.31-3.214 10.478-6.443 15.773-9.515 2.209-1.288 4.56-2.548 7.164-1.26 1.119.354 2.068.977 2.875 1.742 3.483 3.341 6.952 6.81 10.42 10.293L104 34.584c.411.312.807.623 1.232.78l.127.155zm108.738 165.641.227-3.667c.127-4.389.127-8.792.24-13.04.241-8.495.496-17.132.737-25.627.198-7.645.396-15.433.722-23.078.311-7.363.623-14.569.934-21.932.241-8.353.184-16.58.411-24.947.17-2.832.354-5.65.948-8.311.623-3.228 0-6.67-.226-9.94-.142-2.28-.85-4.587-2.011-6.513-1.161-1.911-2.746-3.723-4.799-4.983-3.682-2.492-7.533-4.305-11.865-5.423-6.542-1.968-13.281-3.243-20.063-3.653-7.759-.623-15.518-1.388-23.277-2.152-6.768-.708-13.536-1.402-20.304-2.11-.708-.042-1.557-.1-2.152.297-.722.241-1.331.765-1.784 1.303-2.747 3.087-5.762 5.89-8.637 8.82-7.858 7.746-15.716 15.476-23.701 23.065-.595.524-1.218 1.345-1.558 2.166-.34.822-.523 1.671-.439 2.52.015 8.793-.084 17.444-.056 26.095-.057 10.067-.128 20.275-.326 30.342-.042 9.925-.113 19.992-.297 29.917-.1 8.509-.34 17.004-.58 25.358-.128 1.982.17 4.12.764 6.003l15.603-.028 24.551-.17c7.235.028 14.612-.085 21.847-.057 6.527-.014 13.068-.184 19.595-.198l1.983.127c5.96-.056 11.794-.254 17.613-.325 4.97.028 10.223-.071 15.886 0v.141zm-62.44-164.182c.368-1.26.567-2.238.907-3.2a52 52 0 0 1 2.109-6.542c1.175-2.902 3.03-5.479 5.565-7.461 2.392-1.982 5.451-3.356 8.466-3.866 4.305-.863 8.708-.877 13.069-.183 8.141 1.359 11.723 5.408 13.536 12.756.311 1.87.608 3.866.778 5.72.255 2.705.51 5.565.906 8.283l5.876 1.36c.17-.411.34-.836.368-1.26-.085-3.271.128-6.655-.226-9.94a69.5 69.5 0 0 0-1.883-10.902c-1.586-6.485-6.188-10.024-12.97-10.45-7.475-.608-14.838-.92-22.243-.381-2.563.127-5.154.68-7.348 1.812-2.336 1.132-4.29 2.86-5.834 4.885-4.191 5.691-4.318 12.36-5.295 19.1l4.503.566-.269-.297zm-53.293 6.187L74.097 18.698c-8.552 5.14-17.075 9.869-25.203 15.179.652.892 1.034 1.628 1.43 2.08.793.907 1.459 1.657 2.38 2.705l3.794-1.756c4.233-2.01 8.48-4.148 12.856-6.017 1.33-.765 2.76-.963 4.304-.722 1.416.085 2.79.878 3.837 2.081 2.534 2.563 5.224 4.87 7.773 7.434l8.58 8.056 4.531-4.404v-.141zm87.982-2.761c-.467-4.007-.679-7.278-1.331-10.435-.212-1.147-.722-2.025-1.529-2.79-.807-.764-1.77-1.245-2.902-1.316-2.945-.467-5.791-.354-8.793-.113a6.5 6.5 0 0 0-3.299.651c-1.019.51-2.053 1.147-2.818 1.954-2.166 2.846-3.355 6.173-3.44 9.713 8 1.486 15.645 1.543 24.112 2.35zm-75.451 4.39L94.868 61.272l3.525 4.9 17.061-16.68zM55.648 215.178c-2.93-.751-6.017-1.232-8.934-2.252-7.645-2.605-15.83-3.256-23.843-2.194-3.285.368-6.683.155-9.883-.751s-6.23-2.52-8.792-4.658c-1.218-.92-2.266-2.265-2.903-3.582-.764-1.331-1.09-2.902-1.288-4.474a13.5 13.5 0 0 1 .708-4.644c.524-1.529 1.444-2.747 2.52-3.964 4.517-4.262 10.223-6.882 16.367-7.632 9.586-1.246 19.384-1.487 29.125-.609 5.65.354 11.327.283 16.834.765 1.983.127 4.064.821 5.848 1.784 2.464 1.43 4.602 3.554 6.159 5.918 1.543 2.506 2.364 5.253 2.605 8.255.609 6.272-3.072 10.59-8.099 13.96-5.012 3.086-10.774 4.431-16.58 4.219l.156-.127zM10.44 196.191c.382.736.906 1.472 1.444 1.94.68.467 1.36.934 2.194 1.132 4.022 1.388 8.255 1.784 12.56 1.062a51.4 51.4 0 0 1 16.112 1.005c3.908.949 7.943 2.337 11.865 3.002 4.913.878 9.77.326 13.677-3.271.75-.665 1.373-1.614 1.586-2.59.198-.977.127-2.124-.382-3.002-.34-1.303-1.133-2.336-2.223-3.115s-2.337-1.133-3.61-1.218c-10.62-.382-21.168-1.741-31.985-1.274-4.828.127-9.699.821-14.442 1.94-2.733.679-5.097 2.095-6.938 4.247l.128.156z"/><path fill="#102185" d="M146.618 102.801a71 71 0 0 0 1.982-4.56c3.058-8.042 5.961-16.084 9.161-24.112a12.4 12.4 0 0 1 2.378-3.964c.468-.68 1.204-1.204 2.082-1.572.736-.382 1.585-.467 2.577-.41.991.056 1.684.382 2.506.722a7.6 7.6 0 0 1 1.869 1.812c.778 1.19 1.415 2.365 1.897 3.809 1.076 3.186 1.869 6.357 2.817 9.543.383.736.609 1.6 1.133 2.336.878-.51 1.614-.75 2.35-1.274 1.77-1.02 3.413-2.337 5.31-3.214.878-.51 2.025-.722 3.03-.807.991.056 2.124.127 3.087.623.962.495 1.769 1.104 2.435 1.996.665.75 1.161 1.77 1.387 2.775.34 1.444.524 3.016.567 4.573 0 4.404-.114 8.651-.099 13.04.113 5.112.495 10.251.608 15.362.043 6.103-.056 12.333-.155 18.435.141 6.824-.85 13.564-2.945 19.963-2.988 9.317-8 16.948-17.458 20.757-2.478.977-5.069 1.671-7.787 1.926-3.866.467-7.703.651-11.54.707-1.274-.084-2.548-.155-3.638-.792-2.337-1.133-4.39-2.407-6.726-3.682-4.375-2.548-7.405-6.414-10.279-10.279-5.777-7.589-8.056-16.396-8.184-25.896-.042-8.368.326-16.58 1.26-24.891.595-7.192 1.176-14.257 1.898-21.45.085-1.274.297-2.534.807-3.78 1.529-4.163 6.145-5.296 9.203-1.982a50 50 0 0 1 4.941 7.263c1.289 2.067 2.152 4.106 3.682 7.037h-.142zm-8.977 5.111-.58.241c-.793 8.183-1.572 16.211-2.223 24.409-.255 4.092-.227 8.212.226 12.36.751 8.411 4.857 15.334 10.449 21.366a13.5 13.5 0 0 0 4.616 3.412 12.9 12.9 0 0 0 5.607 1.203c3.271-.085 6.4-.17 9.543-.679 2.294-.283 4.474-1.147 6.4-2.436 1.925-1.288 3.582-2.902 4.842-4.799 2.973-4.503 4.998-9.614 5.607-14.966 1.288-9.429 1.6-18.916.92-28.459-.382-7.546-1.048-15.107-.722-22.597.057-.85-.042-1.699-.113-2.846-1.912 1.161-3.257 2.209-4.871 2.96-3.525 2.052-7.759 1.5-9.713-1.317-1.047-1.487-1.798-3.087-2.548-4.701-.637-1.175-1.119-2.478-1.742-3.936-.878 2.648-1.586 4.87-2.421 6.938-2.195 5.536-4.233 10.944-6.555 16.48a13.1 13.1 0 0 1-4.036 5.565c-1.189.92-2.633 1.401-4.191 1.302s-2.916-.892-3.851-1.94a16 16 0 0 1-1.826-2.52c-1.048-1.486-1.94-3.101-2.974-4.729l.156-.269z"/><path fill="#102185" d="M175.133 139.188c-.51 3.653-.708 6.768-1.175 9.713-.665 3.937-2.733 7.49-5.734 10.138a12.07 12.07 0 0 1-6.981 2.69c-2.562.127-5.082-.453-7.263-1.869-3.002-1.883-5.522-4.743-6.881-8.085-1.855-4.375-3.129-8.99-3.412-13.691-.085-.863.099-1.699.155-2.407q.51-1.253 1.402-2.039c1.062-1.076 2.251-1.982 3.582-2.902 4.588-2.973 7.958-7.164 11.483-11.199.765-.949 1.671-1.884 2.591-2.818 3.894-3.299 9.472-1.826 10.435 3.341a204 204 0 0 1 1.756 12.871c.141 2.279.141 4.544.184 6.257zm-14.951 12.403c3.171-.792 3.454-3.185 3.879-5.436.609-2.945.92-5.763.963-8.736-.014-1.983.552-4.361-.368-5.409l-11.03 8.538c2.039 3.667 1.572 8.891 6.683 11.058h-.142z"/></svg>
